albertroad.htmlalbertroad.htmlalbertroad.htmlalbertroad.htmlalbertroad.htmlalbertroad.htmlalbertroad.htmlalbertroad.htmlalbertroad.htmlFrom <I>Jesse Smith: The Hurricane</I>
albertroad.htmlalbertroad.html<PRE>T:Hurricane, The
T:Hurricane, The
M:4/4
L:1/8
Q:250
R:reel
D:Jesse Smith: The Hurricane
Z:Devin McCabe
K:A
d|:cABG A2ED|CEAc BB,B,d|cABG Aaga|1(3fga ed cAAd:|2(3fga ed cAAa|
!:gaea cAAa|gaea fBBa|gaea ABcd|1(3edc dB cAAa:|2(3edc dB cAAe||
!ac'e'c' aecA|GBEB GBEe|ac'e'c' aecA|defg aAAe|
!ac'e'c' aecA|GBEB GBEd|cABG Aaga|(3fga ed cAA2|
!:cfaf cfaf|efge Bege|fgaf cfaf|gbeg affc|
!fgaf cfaf|efge Bege|aefd ceaf|1ecdB cAAB:|2ecdB cAAd||

%  ABC2Win Version 2.1 8/11/2000
albertroad.htmlalbertroad.htmlalbertroad.htmlalbertroad.htmlalbertroad.htmlalbertroad.htmlalbertroad.html